public/star-2.svg

<svg width="204" height="187" viewBox="0 0 204 187" fill="none" xmlns="http://www.w3.org/2000/svg">
<style>
  @keyframes blink-animation {
    to { opacity: 1; transform: scale(1.01); }
  }

  .blink {
    animation: blink-animation 1.5s infinite alternate;
    opacity: .3;
  }

  .blink-2 {
    animation: blink-animation 1s infinite alternate;
    opacity: .3;
  }

  .blink-3 {
    animation: blink-animation 2s infinite alternate;
    opacity: .3;
  }

  .blink-4 {
    animation: blink-animation 2.5s infinite alternate;
    opacity: .3;
  }

  .blink-5 {
    animation: blink-animation 3s infinite alternate;
    opacity: .3;
  }
</style>

<path d="M101.671 109.432L107.104 164.149" stroke="#CB9470" stroke-width="0.776116" stroke-linecap="round"/>
<path d="M16.1044 16.6865L75.0893 55.6864" stroke="#CB9470" stroke-width="0.776116" stroke-linecap="round"/>
<path d="M87.5071 70.6267L94.4922 89.2535" stroke="#CB9470" stroke-width="0.776116" stroke-linecap="round"/>
<path d="M108.074 101.671L188.208 136.984" stroke="#CB9470" stroke-width="0.776116" stroke-linecap="round"/>
<path class="blink" d="M81.7143 55.4924C82.019 58.7771 84.4232 62.028 87.2678 62.773H87.268V62.807C84.5251 63.5858 82.2225 66.7012 81.7483 69.8506H81.579C81.0372 66.6674 78.7346 63.6196 76.0594 62.8408V62.8068C79.3441 62.0957 81.308 58.8111 81.6467 55.4924H81.7143Z" fill="#CB9470"/>
<path class="blink-2" d="M100.374 89.2534C100.744 93.2337 103.657 97.1729 107.104 98.0757H107.104V98.1169C103.78 99.0606 100.99 102.836 100.416 106.652H100.21C99.5539 102.795 96.7638 99.1016 93.522 98.1579V98.1167C97.5023 97.2549 99.8821 93.2749 100.292 89.2534H100.374Z" fill="#CB9470"/>
<path class="blink-3" d="M0.0577711 12.527C-0.019257 12.3094 -0.019257 12.1647 0.0577711 12.0916C1.70325 11.8022 2.93799 11.4751 3.76153 11.1103C4.58392 10.7478 5.19192 10.1302 5.583 9.25868C5.97614 8.38714 6.26962 7.46143 6.46459 6.4811C6.66139 5.50053 6.83738 4.50351 6.9935 3.48546C7.32584 2.26466 7.11075 1.92181 7.11075 0.108788C7.19007 0.0374745 7.38688 0 7.6991 0C7.77773 1.16251 7.83646 2.32501 7.87509 3.48569C8.1464 11.2413 13.076 12.0379 13.5768 12.3089C14.0517 12.4859 14.8833 12.7444 15.3397 12.7444C15.8892 12.7444 15.8504 12.818 15.2223 12.9624C14.1048 12.9624 13.59 12.7638 12.7537 13.0715H12.5187C12.0488 13.2893 11.4602 13.7793 10.7553 14.5418C10.0495 15.3046 9.42365 16.5572 8.8744 18.3C7.87624 22.9274 7.81636 22.9964 7.81636 23.7464C7.81636 24.1089 7.77749 24.4716 7.69886 24.8357H7.11053C7.11053 24.0552 6.99327 23.9802 6.99327 23.2019C6.76196 20.3617 7.07854 19.4694 6.40562 17.7558C5.93523 16.377 5.2502 15.1601 4.3485 14.1064C3.44861 13.0548 2.05617 12.5645 0.175265 12.636C0.175265 12.5645 0.136399 12.527 0.0577711 12.527Z" fill="#CB9470"/>
<path class="blink-5" d="M188.266 140.974C188.189 140.757 188.189 140.612 188.266 140.539C189.911 140.249 191.146 139.922 191.97 139.558C192.792 139.195 193.4 138.577 193.791 137.706C194.184 136.834 194.478 135.909 194.673 134.928C194.87 133.948 195.046 132.951 195.202 131.933C195.534 130.712 195.319 130.369 195.319 128.556C195.398 128.485 195.595 128.447 195.907 128.447C195.986 129.61 196.045 130.772 196.083 131.933C196.355 139.689 201.284 140.485 201.785 140.756C202.26 140.933 203.092 141.192 203.548 141.192C204.097 141.192 204.059 141.265 203.431 141.41C202.313 141.41 201.798 141.211 200.962 141.519H200.727C200.257 141.737 199.668 142.227 198.964 142.989C198.258 143.752 197.632 145.004 197.083 146.747C196.084 151.375 196.025 151.444 196.025 152.194C196.025 152.556 195.986 152.919 195.907 153.283H195.319C195.319 152.502 195.202 152.427 195.202 151.649C194.97 148.809 195.287 147.917 194.614 146.203C194.143 144.824 193.458 143.607 192.557 142.554C191.657 141.502 190.264 141.012 188.384 141.083C188.384 141.012 188.345 140.974 188.266 140.974Z" fill="#CB9470"/>
<path class="blink-4" d="M114.156 176.847C114.217 176.674 114.217 176.559 114.156 176.5C112.845 176.27 111.861 176.009 111.204 175.719C110.549 175.43 110.064 174.938 109.753 174.243C109.44 173.548 109.206 172.811 109.05 172.03C108.893 171.248 108.753 170.454 108.629 169.642C108.364 168.67 108.535 168.396 108.535 166.952C108.472 166.895 108.315 166.865 108.067 166.865C108.004 167.791 107.957 168.718 107.926 169.643C107.71 175.823 103.782 176.458 103.383 176.674C103.004 176.815 102.342 177.021 101.978 177.021C101.54 177.021 101.571 177.079 102.072 177.194C102.962 177.194 103.372 177.036 104.039 177.281H104.226C104.6 177.455 105.069 177.845 105.631 178.453C106.194 179.061 106.692 180.059 107.13 181.448C107.925 185.135 107.973 185.19 107.973 185.788C107.973 186.077 108.004 186.366 108.067 186.656H108.536C108.536 186.034 108.629 185.974 108.629 185.354C108.813 183.091 108.561 182.38 109.097 181.014C109.472 179.915 110.018 178.946 110.737 178.106C111.454 177.268 112.563 176.877 114.062 176.934C114.062 176.877 114.093 176.847 114.156 176.847Z" fill="#CB9470"/>
</svg>

<svg xmlns="http://www.w3.org/2000/svg" width="204" height="187" fill="none"><path stroke="#CB9470" stroke-linecap="round" stroke-width=".776" d="m101.671 109.432 5.433 54.717M16.104 16.686l58.985 39M87.507 70.627l6.985 18.627M108.074 101.671l80.134 35.313"/><path fill="#CB9470" d="M81.714 55.492c.305 3.285 2.71 6.536 5.554 7.281v.034c-2.743.779-5.046 3.894-5.52 7.044h-.169c-.542-3.184-2.844-6.231-5.52-7.01v-.034c3.285-.711 5.249-3.996 5.588-7.315h.067ZM100.374 89.253c.37 3.98 3.283 7.92 6.73 8.823v.04c-3.324.945-6.114 4.72-6.688 8.536h-.206c-.656-3.857-3.446-7.55-6.688-8.494v-.041c3.98-.862 6.36-4.842 6.77-8.864h.082ZM.058 12.527c-.077-.218-.077-.362 0-.435 1.645-.29 2.88-.617 3.704-.982.822-.362 1.43-.98 1.821-1.851.393-.872.687-1.798.882-2.778.196-.98.372-1.977.529-2.996.332-1.22.117-1.563.117-3.376C7.19.037 7.387 0 7.699 0c.079 1.163.137 2.325.176 3.486.271 7.755 5.201 8.552 5.702 8.823.475.177 1.306.435 1.763.435.55 0 .51.074-.118.218-1.117 0-1.632-.198-2.468.11h-.235c-.47.217-1.059.707-1.764 1.47-.706.763-1.331 2.015-1.88 3.758-.999 4.627-1.059 4.696-1.059 5.446 0 .363-.039.726-.117 1.09H7.11c0-.78-.118-.856-.118-1.634-.231-2.84.086-3.733-.587-5.446a11.026 11.026 0 0 0-2.058-3.65c-.9-1.051-2.292-1.541-4.173-1.47 0-.071-.039-.109-.117-.109ZM188.266 140.974c-.077-.217-.077-.362 0-.435 1.645-.29 2.88-.617 3.704-.981.822-.363 1.43-.981 1.821-1.852.393-.872.687-1.797.882-2.778.197-.98.373-1.977.529-2.995.332-1.221.117-1.564.117-3.377.079-.071.276-.109.588-.109.079 1.163.138 2.325.176 3.486.272 7.756 5.201 8.552 5.702 8.823.475.177 1.307.436 1.763.436.549 0 .511.073-.117.218-1.118 0-1.633-.199-2.469.109h-.235c-.47.218-1.059.708-1.763 1.47-.706.763-1.332 2.015-1.881 3.758-.999 4.628-1.058 4.697-1.058 5.447 0 .362-.039.725-.118 1.089h-.588c0-.781-.117-.856-.117-1.634-.232-2.84.085-3.732-.588-5.446a11.038 11.038 0 0 0-2.057-3.649c-.9-1.052-2.293-1.542-4.173-1.471 0-.071-.039-.109-.118-.109ZM114.156 176.847c.061-.173.061-.288 0-.347-1.311-.23-2.295-.491-2.952-.781-.655-.289-1.14-.781-1.451-1.476a10.262 10.262 0 0 1-.703-2.213 51.981 51.981 0 0 1-.421-2.388c-.265-.972-.094-1.246-.094-2.69-.063-.057-.22-.087-.468-.087-.063.926-.11 1.853-.141 2.778-.216 6.18-4.144 6.815-4.543 7.031-.379.141-1.041.347-1.405.347-.438 0-.407.058.094.173.89 0 1.3-.158 1.967.087h.187c.374.174.843.564 1.405 1.172.563.608 1.061 1.606 1.499 2.995.795 3.687.843 3.742.843 4.34 0 .289.031.578.094.868h.469c0-.622.093-.682.093-1.302.184-2.263-.068-2.974.468-4.34a8.783 8.783 0 0 1 1.64-2.908c.717-.838 1.826-1.229 3.325-1.172 0-.057.031-.087.094-.087Z"/></svg>
